assets/img/bin.svg

<?xml version="1.0" encoding="UTF-8"?>
<svg width="16px" height="20px" viewBox="0 0 16 20" version="1.1" xmlns="http://www.w3.org/2000/svg" xmlns:xlink="http://www.w3.org/1999/xlink">
    <!-- Generator: Sketch 64 (93537) - https://sketch.com -->
    <title>bin</title>
    <desc>Created with Sketch.</desc>
    <g id="Welcome" stroke="none" stroke-width="1" fill="none" fill-rule="evenodd">
        <g id="order-summery-1.0(for-ideal-home)" transform="translate(-1139.000000, -341.000000)" fill="#000000" fill-rule="nonzero">
            <g id="bin" transform="translate(1139.000000, 341.000000)">
                <path d="M10.7309627,7.27584696 C10.4770115,7.27584696 10.2711926,7.48503215 10.2711926,7.74313668 L10.2711926,16.5749124 C10.2711926,16.8328344 10.4770115,17.0422021 10.7309627,17.0422021 C10.9849138,17.0422021 11.1907328,16.8328344 11.1907328,16.5749124 L11.1907328,7.74313668 C11.1907328,7.48503215 10.9849138,7.27584696 10.7309627,7.27584696 Z" id="Path"></path>
                <path d="M5.30567531,7.27584696 C5.05172414,7.27584696 4.8459052,7.48503215 4.8459052,7.74313668 L4.8459052,16.5749124 C4.8459052,16.8328344 5.05172414,17.0422021 5.30567531,17.0422021 C5.55962644,17.0422021 5.76544543,16.8328344 5.76544543,16.5749124 L5.76544543,7.74313668 C5.76544543,7.48503215 5.55962644,7.27584696 5.30567531,7.27584696 Z" id="Path"></path>
                <path d="M1.35165232,5.98696701 L1.35165232,17.5 C1.35165232,18.1804907 1.59716234,18.8195458 2.02604166,19.2780739 C2.45294538,19.7378797 3.04705462,19.9989048 3.66882184,20 L12.3678161,20 C12.9897629,19.9989048 13.5838721,19.7378797 14.0105963,19.2780739 C14.4394756,18.8195458 14.6849857,18.1804907 14.6849857,17.5 L14.6849857,5.98696701 C15.5375359,5.75697285 16.0899784,4.9198671 15.9759339,4.03073888 C15.8617098,3.14179322 15.1165589,2.47681804 14.234375,2.47663551 L11.880388,2.47663551 L11.880388,1.89252336 C11.8830819,1.40132154 11.6919899,0.929650981 11.3498563,0.582651869 C11.0077227,0.23583528 10.5429239,0.0427132009 10.0596264,0.0466675739 L5.97701149,0.0466675739 C5.49371407,0.0427132009 5.02891522,0.23583528 4.68678161,0.582651869 C4.344648,0.929650981 4.15355605,1.40132154 4.15625002,1.89252336 L4.15625002,2.47663551 L1.80226294,2.47663551 C0.920079034,2.47681804 0.174928184,3.14179322 0.060704,4.03073888 C-0.0533405057,4.9198671 0.499102023,5.75697285 1.35165232,5.98696701 Z M12.3678161,19.0654206 L3.66882184,19.0654206 C2.88272271,19.0654206 2.27119255,18.3790888 2.27119255,17.5 L2.27119255,6.02803738 L13.7654454,6.02803738 L13.7654454,17.5 C13.7654454,18.3790888 13.1539152,19.0654206 12.3678161,19.0654206 Z M5.07579025,1.89252336 C5.07273706,1.64920416 5.16684625,1.41501168 5.3367457,1.24324621 C5.50646552,1.07148075 5.73742814,0.977110093 5.97701149,0.981308411 L10.0596264,0.981308411 C10.2992097,0.977110093 10.5301724,1.07148075 10.6998922,1.24324621 C10.8697917,1.41482916 10.9639009,1.64920416 10.9608477,1.89252336 L10.9608477,2.47663551 L5.07579025,2.47663551 L5.07579025,1.89252336 Z M1.80226294,3.41121495 L14.234375,3.41121495 C14.6914511,3.41121495 15.0619612,3.78778477 15.0619612,4.25233645 C15.0619612,4.71688813 14.6914511,5.09345794 14.234375,5.09345794 L1.80226294,5.09345794 C1.34518676,5.09345794 0.974676736,4.71688813 0.974676736,4.25233645 C0.974676736,3.78778477 1.34518676,3.41121495 1.80226294,3.41121495 Z" id="Shape"></path>
                <path d="M8.01831899,7.27584696 C7.76436782,7.27584696 7.55854887,7.48503215 7.55854887,7.74313668 L7.55854887,16.5749124 C7.55854887,16.8328344 7.76436782,17.0422021 8.01831899,17.0422021 C8.27227011,17.0422021 8.4780891,16.8328344 8.4780891,16.5749124 L8.4780891,7.74313668 C8.4780891,7.48503215 8.27227011,7.27584696 8.01831899,7.27584696 Z" id="Path"></path>
            </g>
        </g>
    </g>
</svg>

<svg width="16" height="20" xmlns="http://www.w3.org/2000/svg"><path d="M10.731 7.276a.464.464 0 00-.46.467v8.832c0 .258.206.467.46.467s.46-.21.46-.467V7.743a.464.464 0 00-.46-.467zm-5.425 0a.464.464 0 00-.46.467v8.832c0 .258.206.467.46.467s.46-.21.46-.467V7.743a.464.464 0 00-.46-.467z"/><path d="M1.352 5.987V17.5c0 .68.245 1.32.674 1.778A2.25 2.25 0 003.669 20h8.699a2.247 2.247 0 001.643-.722c.428-.458.674-1.098.674-1.778V5.987a1.785 1.785 0 001.29-1.956 1.767 1.767 0 00-1.74-1.554H11.88v-.584a1.851 1.851 0 00-.53-1.31 1.792 1.792 0 00-1.29-.536H5.977a1.792 1.792 0 00-1.29.536 1.851 1.851 0 00-.53 1.31v.584H1.801c-.881 0-1.626.665-1.74 1.553a1.785 1.785 0 001.29 1.956zm11.016 13.078h-8.7c-.785 0-1.397-.686-1.397-1.565V6.028h11.494V17.5c0 .88-.611 1.565-1.397 1.565zM5.076 1.893a.907.907 0 01.26-.65.88.88 0 01.641-.262h4.083c.24-.004.47.09.64.262.17.172.264.406.26.65v.584H5.077v-.584zM1.802 3.41h12.432c.457 0 .828.377.828.841 0 .465-.37.841-.828.841H1.802a.834.834 0 01-.827-.84c0-.465.37-.842.827-.842z"/><path d="M8.018 7.276a.464.464 0 00-.46.467v8.832c0 .258.206.467.46.467s.46-.21.46-.467V7.743a.464.464 0 00-.46-.467z"/></svg>
